resources/images/winner-badge-first.svg

<svg viewBox="0 0 48 48" fill="none" xmlns="http://www.w3.org/2000/svg">
<path d="M24.0342 48C36.9497 48 47.4199 37.5298 47.4199 24.6142C47.4199 11.6987 36.9497 1.22852 24.0342 1.22852C11.1186 1.22852 0.648438 11.6987 0.648438 24.6142C0.648438 37.5298 11.1186 48 24.0342 48Z" fill="#F9CF58"/>
<path d="M23.9916 45.4582C36.8838 45.4582 47.335 35.282 47.335 22.7291C47.335 10.1762 36.8838 0 23.9916 0C11.0994 0 0.648193 10.1762 0.648193 22.7291C0.648193 35.282 11.0994 45.4582 23.9916 45.4582Z" fill="#FFE27A"/>
<path d="M24.0781 40.7129C33.6244 40.7129 41.3633 32.974 41.3633 23.4277C41.3633 13.8814 33.6244 6.14258 24.0781 6.14258C14.5318 6.14258 6.79297 13.8814 6.79297 23.4277C6.79297 32.974 14.5318 40.7129 24.0781 40.7129Z" fill="#EE9316"/>
<path d="M23.9934 38.0862C33.4929 38.0862 41.1938 30.9354 41.1938 22.1144C41.1938 13.2934 33.4929 6.14258 23.9934 6.14258C14.4939 6.14258 6.79297 13.2934 6.79297 22.1144C6.79297 30.9354 14.4939 38.0862 23.9934 38.0862Z" fill="#F5B14E"/>
<g filter="url(#filter0_b_23916_75053)">
<path d="M19.7164 18.02C20.1031 17.86 20.5031 17.68 20.9164 17.48C21.3431 17.2667 21.7564 17.04 22.1564 16.8C22.5564 16.5467 22.9364 16.2867 23.2964 16.02C23.6697 15.74 24.0031 15.4467 24.2964 15.14H26.3764V29H23.3964V19.02C22.9964 19.2867 22.5497 19.5333 22.0564 19.76C21.5631 19.9733 21.0831 20.16 20.6164 20.32L19.7164 18.02Z" fill="#FFF5D3"/>
</g>
<defs>
<filter id="filter0_b_23916_75053" x="5.71631" y="1.14" width="34.6602" height="41.86" filterUnits="userSpaceOnUse" color-interpolation-filters="sRGB">
<feFlood flood-opacity="0" result="BackgroundImageFix"/>
<feGaussianBlur in="BackgroundImageFix" stdDeviation="7"/>
<feComposite in2="SourceAlpha" operator="in" result="effect1_backgroundBlur_23916_75053"/>
<feBlend mode="normal" in="SourceGraphic" in2="effect1_backgroundBlur_23916_75053" result="shape"/>
</filter>
</defs>
</svg>

<svg viewBox="0 0 48 48" fill="none" xmlns="http://www.w3.org/2000/svg"><path d="M24.034 48C36.95 48 47.42 37.53 47.42 24.614 47.42 11.7 36.95 1.23 24.034 1.23 11.12 1.229.648 11.699.648 24.614.648 37.53 11.118 48 24.034 48Z" fill="#F9CF58"/><path d="M23.992 45.458c12.892 0 23.343-10.176 23.343-22.729C47.335 10.176 36.884 0 23.992 0 11.099 0 .648 10.176.648 22.73c0 12.552 10.451 22.728 23.344 22.728Z" fill="#FFE27A"/><path d="M24.078 40.713c9.546 0 17.285-7.739 17.285-17.285 0-9.547-7.739-17.285-17.285-17.285S6.793 13.88 6.793 23.428c0 9.546 7.739 17.285 17.285 17.285Z" fill="#EE9316"/><path d="M23.993 38.086c9.5 0 17.2-7.15 17.2-15.972 0-8.82-7.7-15.971-17.2-15.971s-17.2 7.15-17.2 15.971 7.7 15.972 17.2 15.972Z" fill="#F5B14E"/><g filter="url(#filter0_b_23916_75053)"><path d="M19.716 18.02c.387-.16.787-.34 1.2-.54.427-.213.84-.44 1.24-.68.4-.253.78-.513 1.14-.78.374-.28.707-.573 1-.88h2.08V29h-2.98v-9.98c-.4.267-.846.513-1.34.74-.493.213-.973.4-1.44.56l-.9-2.3Z" fill="#FFF5D3"/></g><defs><filter id="filter0_b_23916_75053" x="5.71631" y="1.14" width="34.6602" height="41.86" filterUnits="userSpaceOnUse" color-interpolation-filters="sRGB"><feFlood flood-opacity="0" result="BackgroundImageFix"/><feGaussianBlur in="BackgroundImageFix" stdDeviation="7"/><feComposite in2="SourceAlpha" operator="in" result="effect1_backgroundBlur_23916_75053"/><feBlend mode="normal" in="SourceGraphic" in2="effect1_backgroundBlur_23916_75053" result="shape"/></filter></defs></svg>
